symbols/web/first_page/materialsymbolsrounded/first_page_wght200_20px.svg

<svg xmlns="http://www.w3.org/2000/svg" height="20" width="20"><path d="m13.792 14.104-3.604-3.583q-.126-.146-.178-.271-.052-.125-.052-.25t.052-.25q.052-.125.178-.271l3.604-3.583q.146-.167.312-.167.167 0 .313.167.166.146.166.312 0 .167-.166.313L10.938 10l3.479 3.479q.166.146.166.313 0 .166-.166.312-.146.167-.313.167-.166 0-.312-.167Zm-7.917.479q-.187 0-.323-.135-.135-.136-.135-.323v-8.25q0-.187.145-.323.146-.135.313-.135.187 0 .323.135.135.136.135.323v8.25q0 .187-.145.323-.146.135-.313.135Z"/></svg>

<svg xmlns="http://www.w3.org/2000/svg" height="20" width="20"><path d="M13.792 14.104 10.188 10.521Q10.062 10.375 10.01 10.25Q9.958 10.125 9.958 10Q9.958 9.875 10.01 9.75Q10.062 9.625 10.188 9.479L13.792 5.896Q13.938 5.729 14.104 5.729Q14.271 5.729 14.417 5.896Q14.583 6.042 14.583 6.208Q14.583 6.375 14.417 6.521L10.938 10L14.417 13.479Q14.583 13.625 14.583 13.792Q14.583 13.958 14.417 14.104Q14.271 14.271 14.104 14.271Q13.938 14.271 13.792 14.104ZM5.875 14.583Q5.688 14.583 5.552 14.448Q5.417 14.312 5.417 14.125V5.875Q5.417 5.688 5.562 5.552Q5.708 5.417 5.875 5.417Q6.062 5.417 6.198 5.552Q6.333 5.688 6.333 5.875V14.125Q6.333 14.312 6.188 14.448Q6.042 14.583 5.875 14.583Z"/></svg>
